public/assets/icons/activation_quick.svg

<?xml version="1.0" standalone="no"?>
<!DOCTYPE svg PUBLIC "-//W3C//DTD SVG 1.1//EN" "http://www.w3.org/Graphics/SVG/1.1/DTD/svg11.dtd" >
<svg xmlns="http://www.w3.org/2000/svg" xmlns:xlink="http://www.w3.org/1999/xlink" version="1.1" viewBox="0 -64 1024 1024" width="512" height="512">
  <g transform="matrix(1 0 0 -1 0 960)">
   <path fill="currentColor"
d="M225 721l-10 -10l-78 -78v-370l88 -88h574l88 88v370l-88 88h-574zM253 653h518l48 -48v-314l-48 -48h-518l-48 48v314zM341 603l69 -155l-69 -155l376 155z" />
  </g>

</svg>

<?xml version="1.0" encoding="UTF-8" standalone="no"?>
<svg
   version="1.1"
   viewBox="0 -64 1024 1024"
   width="512"
   height="512"
   id="svg195"
   sodipodi:docname="activation_quick.svg"
   inkscape:version="1.2.2 (732a01da63, 2022-12-09)"
   xmlns:inkscape="http://www.inkscape.org/namespaces/inkscape"
   xmlns:sodipodi="http://sodipodi.sourceforge.net/DTD/sodipodi-0.dtd"
   xmlns="http://www.w3.org/2000/svg"
   xmlns:svg="http://www.w3.org/2000/svg">
  <defs
     id="defs199" />
  <sodipodi:namedview
     id="namedview197"
     pagecolor="#ffffff"
     bordercolor="#000000"
     borderopacity="0.25"
     inkscape:showpageshadow="2"
     inkscape:pageopacity="0.0"
     inkscape:pagecheckerboard="0"
     inkscape:deskcolor="#d1d1d1"
     showgrid="false"
     inkscape:zoom="1.6191406"
     inkscape:cx="236.23643"
     inkscape:cy="256.30881"
     inkscape:window-width="1920"
     inkscape:window-height="1009"
     inkscape:window-x="-8"
     inkscape:window-y="-8"
     inkscape:window-maximized="1"
     inkscape:current-layer="svg195" />
  <g
     transform="matrix(1,0,0,-1,0,896)"
     id="g193">
    <path
       fill="currentColor"
       d="M 225,721 215,711 137,633 V 263 l 88,-88 h 574 l 88,88 v 370 l -88,88 z m 28,-68 h 518 l 48,-48 V 291 L 771,243 H 253 l -48,48 v 314 z m 88,-50 69,-155 -69,-155 376,155 z"
       id="path191" />
  </g>
</svg>
